X:1
T:Turkish March (Ruins of Athens)
C:Ludwig van Beethoven
M:2/4
L:1/8
Q:1/4=120
K:Bb
% A section (16 bars) — range F4–Bb4
F2 | B/ B3/2 AB | BABG | B/ B3/2 AB | G4 |
B/ B3/2 AB | A/ A3/2 GB | G/ G3/2 FA | F4 |
B/ B3/2 AB | BABG | A/ A3/2 GB | B4 |
B/ B3/2 AB | G/ G3/2 FA | GAFA | B4 |]
